X: 4
T:Pennknivsmrdaren
M:3/8
L:1/16
C:Trad. Swedish
S:Vsen
K:C
abag fg|fd e2 e2|c3d cB|A^G A2 E2|1A^GAB c2|d2 e2 ^f2|d^cdf ab|!a^g e4:|
2A^GAB c2-|ce dcBA|^GABG A2-|A6:|
:E2 c2 E2|c2 E2 c2|(3cdc) B2 G2|B2 B2 B2|cBA^G AB|cdef ed|1cdcB AB|A^G E
4:|2cBA^G A2-|A6:|
